packages/icons/web/v1/flag_sk_small.svg

<svg width="16" height="16" viewBox="0 0 16 16" fill="none" xmlns="http://www.w3.org/2000/svg">
    <path fill-rule="evenodd" clip-rule="evenodd" d="M1.88235 2H14.1176C15.1572 2 16 2.84276 16 3.88235V11.4118C16 12.4514 15.1572 13.2941 14.1176 13.2941H1.88235C0.842758 13.2941 0 12.4514 0 11.4118V3.88235C0 2.84276 0.842758 2 1.88235 2ZM1.88235 2.47059C1.10266 2.47059 0.470588 3.10266 0.470588 3.88235V11.4118C0.470588 12.1915 1.10266 12.8235 1.88235 12.8235H14.1176C14.8973 12.8235 15.5294 12.1915 15.5294 11.4118V3.88235C15.5294 3.10266 14.8973 2.47059 14.1176 2.47059H1.88235Z" fill="#D8DDE1"/>
    <path fill-rule="evenodd" clip-rule="evenodd" d="M0.5 11.4625C0.5 12.2081 1.10442 12.8125 1.85 12.8125H14.15C14.8956 12.8125 15.5 12.2081 15.5 11.4625V3.85C15.5 3.10442 14.8956 2.5 14.15 2.5H1.85C1.10442 2.5 0.5 3.10442 0.5 3.85V11.4625Z" fill="#EE1C25"/>
    <path fill-rule="evenodd" clip-rule="evenodd" d="M0.5 9.37505H15.5V3.85C15.5 3.10442 14.8956 2.5 14.15 2.5H1.85C1.10442 2.5 0.5 3.10442 0.5 3.85V9.37505Z" fill="#0B4EA2"/>
    <path fill-rule="evenodd" clip-rule="evenodd" d="M0.5 5.93753H15.5V3.85C15.5 3.10442 14.8956 2.5 14.15 2.5H1.85C1.10442 2.5 0.5 3.10442 0.5 3.85V5.93753Z" fill="white"/>
    <path fill-rule="evenodd" clip-rule="evenodd" d="M5.77084 10.4667C4.87448 10.0214 3.59235 9.1377 3.59235 7.3895C3.59235 5.64138 3.67339 4.84631 3.67339 4.84631H7.86829C7.86829 4.84631 7.94941 5.64138 7.94941 7.3895C7.94941 9.13763 6.66727 10.0215 5.77077 10.4667" fill="white"/>
    <path fill-rule="evenodd" clip-rule="evenodd" d="M5.77098 10.2344C4.9486 9.82592 3.77234 9.01516 3.77234 7.41136C3.77234 5.80756 3.84668 5.07812 3.84668 5.07812H7.69528C7.69528 5.07812 7.7697 5.80756 7.7697 7.41136C7.7697 9.01516 6.59336 9.82592 5.77098 10.2344Z" fill="#EE1C25"/>
    <path fill-rule="evenodd" clip-rule="evenodd" d="M5.94655 6.99068C6.16922 6.99443 6.60364 7.00344 6.99051 6.86993C6.99051 6.86993 6.98031 7.0126 6.98031 7.17893C6.98031 7.34526 6.99051 7.48801 6.99051 7.48801C6.63568 7.36561 6.19754 7.36305 5.94655 7.36636V8.25213H5.59485V7.36628C5.34393 7.36305 4.90579 7.36553 4.55096 7.48801C4.55096 7.48801 4.56116 7.34533 4.56116 7.17893C4.56116 7.01268 4.55096 6.86985 4.55096 6.86985C4.93776 7.00337 5.37218 6.99436 5.59485 6.99075V6.43433C5.39191 6.43252 5.09948 6.44251 4.76883 6.55665C4.76883 6.55665 4.77902 6.41383 4.77902 6.2475C4.77902 6.08125 4.76883 5.9385 4.76883 5.9385C5.09897 6.05241 5.39104 6.06255 5.59398 6.06075C5.58349 5.70842 5.48402 5.2644 5.48402 5.2644C5.48402 5.2644 5.68885 5.28092 5.7707 5.28092C5.85269 5.28092 6.05737 5.2644 6.05737 5.2644C6.05737 5.2644 5.95791 5.70842 5.94742 6.06075C6.15036 6.06255 6.44242 6.05241 6.77264 5.93842C6.77264 5.93842 6.76245 6.08117 6.76245 6.2475C6.76245 6.41383 6.77264 6.55657 6.77264 6.55657C6.44199 6.44244 6.14949 6.43245 5.94655 6.43433V6.99068Z" fill="white"/>
    <path fill-rule="evenodd" clip-rule="evenodd" d="M5.77075 8.15649C5.35657 8.15649 5.13478 8.74896 5.13478 8.74896C5.13478 8.74896 5.01172 8.46805 4.67385 8.46805C4.44521 8.46805 4.27679 8.6777 4.16968 8.87189C4.5856 9.55432 5.24917 9.9755 5.77075 10.2346C6.29233 9.9755 6.9564 9.55447 7.37233 8.87196C7.26521 8.6777 7.09672 8.46797 6.86815 8.46797C6.53029 8.46797 6.40665 8.74896 6.40665 8.74896C6.40665 8.74896 6.18485 8.15649 5.77075 8.15649Z" fill="#0B4EA2"/>
</svg>

<svg width="16" height="16" viewBox="0 0 16 16" fill="none" xmlns="http://www.w3.org/2000/svg">
    <path fill-rule="evenodd" clip-rule="evenodd" d="M1.882 2h12.236C15.158 2 16 2.843 16 3.882v7.53c0 1.04-.843 1.882-1.882 1.882H1.882A1.882 1.882 0 010 11.412v-7.53C0 2.842.843 2 1.882 2zm0 .47c-.78 0-1.411.633-1.411 1.412v7.53c0 .78.632 1.411 1.411 1.411h12.236c.78 0 1.411-.632 1.411-1.411v-7.53c0-.78-.632-1.411-1.411-1.411H1.882z" fill="#D8DDE1"/>
    <g>
        <mask id="flag_sk_small_svg__a" maskUnits="userSpaceOnUse" x="0" y="2" width="16" height="11">
            <path d="M14.075 2.5H1.925C1.138 2.5.5 3.145.5 3.94v7.432c0 .796.638 1.44 1.425 1.44h12.15c.787 0 1.425-.644 1.425-1.44V3.94c0-.796-.638-1.441-1.425-1.441z" fill="#fff"/>
        </mask>
        <g mask="url(#flag_sk_small_svg__a)" fill-rule="evenodd" clip-rule="evenodd">
            <path d="M.5 12.813h15V2.5H.5v10.313z" fill="#EE1C25"/>
            <path d="M.5 9.375h15V2.5H.5v6.875z" fill="#0B4EA2"/>
            <path d="M.5 5.938h15V2.5H.5v3.438z" fill="#fff"/>
            <path d="M5.77 10.467c-.896-.446-2.178-1.33-2.178-3.078 0-1.748.081-2.543.081-2.543h4.195s.081.795.081 2.543c0 1.749-1.282 2.632-2.178 3.078" fill="#fff"/>
            <path d="M5.771 10.234c-.822-.408-1.999-1.219-1.999-2.823 0-1.603.075-2.333.075-2.333h3.848s.075.73.075 2.333c0 1.604-1.177 2.415-1.999 2.823z" fill="#EE1C25"/>
            <path d="M5.947 6.99c.222.004.657.013 1.044-.12 0 0-.01.143-.01.309s.01.309.01.309c-.355-.122-.793-.125-1.044-.122v.886h-.352v-.886c-.251-.003-.69 0-1.044.122 0 0 .01-.143.01-.31 0-.165-.01-.308-.01-.308.387.133.821.124 1.044.12v-.556a2.4 2.4 0 00-.826.123s.01-.143.01-.31c0-.166-.01-.308-.01-.308a2.4 2.4 0 00.825.122 5.098 5.098 0 00-.11-.797s.205.017.287.017c.082 0 .286-.017.286-.017s-.1.444-.11.797c.203.002.495-.009.826-.123 0 0-.01.143-.01.31 0 .166.01.309.01.309a2.398 2.398 0 00-.826-.123v.557z" fill="#fff"/>
            <path d="M5.77 8.156c-.413 0-.635.593-.635.593s-.123-.281-.461-.281c-.229 0-.397.21-.504.404.416.682 1.08 1.104 1.6 1.363.522-.26 1.186-.68 1.602-1.363-.107-.194-.275-.404-.504-.404-.338 0-.461.281-.461.281s-.222-.593-.636-.593" fill="#0B4EA2"/>
        </g>
    </g>
</svg>
